X: 10353
T: SPANISH WALTZ
C:
%R: waltz
B: Elias Howe "The Musician's Companion" Part 1 1842 p.35 #3
S: http://imslp.org/wiki/The_Musician's_Companion_(Howe,_Elias)
Z: 2015 John Chambers <jc:trillian.mit.edu>
M: 3/4
L: 1/8
K: G
% - - - - - - - - - - - - - - - - - - - - - - - - -
d2 |\
gfgabg | afd2d2 | g2a2b2 | a4d2 |\
gfgabg | afd2d2 | g2a2b2 | g4 :: B2 |\
e^defga | b2b2c'2 | bc'bagf | age2B2 |\
e^defga |
b2b2c'2 | bc'bagf | e4 :: d2 |\
gdBdgd | gdBdgb | agfedf | gfgbd2 |\
gdBdgd | gdBdgb | agfedf | g4 :|
% - - - - - - - - - - - - - - - - - - - - - - - - -
